!!!!SEGMENT: pl-kk--kk-i-111--009-001_anonim--deo-gratias-sabato-1mum.krn
!!!cenid: 18xx:2576
!!!COM: Anonim
!!!COM-rismid: pe30004985
!!!CDT:
!!!CNT:
!!!GTL: Deo gratias
!!!OTL: Sabato 1mum
!!!OMV: 001
!!!PDT: 1824
!!!AGN: Sacred
!!!SMS-siglum: PL-Kk
!!!SMS-shelfmark: Kk.I.111
!!!SMS-shelfwork: 009-001 G
!!!SMS-variant:
!!!SMS-altvar:
!!!NIFC-rismid: 1001157691
!!!URL-scan: http://repozytorium.nifc.pl/skany/pl-kk-nut--i-111
!!!ONB-nifc: UWAGA: A, T1, T2. Podział na poszególne Deo gratias. A: skan 0003 (m.in)
**kern	**text	**kern	**text	**kern	**text
*part3	*part3	*part2	*part2	*part1	*part1
*staff3	*staff3	*staff2	*staff2	*staff1	*staff1
*I"Tenore Vagante.	*	*I"Tenore Chorale.	*	*I"Alto.	*
*I'T 2	*	*I'T 1	*	*I'A	*
*clefC4	*	*clefC4	*	*clefC3	*
*k[]	*	*k[b-]	*	*k[b-]	*
*d:	*	*d:	*	*d:	*
*M2/1	*	*M2/1	*	*M2/1	*
*met(c|)	*	*met(c|)	*	*met(c|)	*
*2\right	*	*2\right	*	*2\right	*
=1-	=1-	=1-	=1-	=1-	=1-
!	!	!LO:TX:t=P:problem:kreska pseudotaktowa	!	!	!
!LO:N:vis=0.	!	!	!	!LO:TX:t=P:problem:kreska pseudotaktowa	!
2%5A	De-	1D	De-	1r	.
!	!	!	!	!LO:TX:t=P:problem:kreska pseudotaktowa	!
.	.	0F	.	1d	De-
=2-	=2-	=2-	=2-	=2	=2-
!	!	!LO:TX:t=P:problem:kreska pseudotaktowa	!	!LO:TX:t=P:problem:2\right:global	!
.	.	.	.	2c\	-o
!LO:TX:t=P:problem:kreska pseudotaktowa	!	!	!	!	!
!LO:TX:t=P:problem:2\right:global	!	!	!	!	!
2A\	-o	.	.	1d	.
!LO:TX:t=P:problem:kreska pseudotaktowa	!	!LO:TX:t=P:problem:kreska pseudotaktowa	!	!	!
1B-X	gra-	1G	.	.	.
.	.	.	.	1e\	gra-
=3	=3-	=3	=3-	=3-	=3-
!	!	!LO:TX:t=P:problem:kreska pseudotaktowa	!	!	!
2A\	.	1A	.	.	.
!	!	!	!	!LO:TX:t=P:problem:kreska pseudotaktowa	!
1e	.	.	.	2f\	.
!	!	!LO:TX:t=P:problem:kreska pseudotaktowa	!	!LO:TX:t=P:problem:kreska pseudotaktowa	!
.	.	1G	.	1g	.
!LO:TX:t=P:problem:kreska pseudotaktowa	!	!	!	!	!
2e\	-ti-	.	.	.	.
=4	=4-	=4	=4-	=4	=4-
!LO:TX:t=P:problem:kreska pseudotaktowa	!	!LO:TX:t=P:problem:kreska pseudotaktowa	!	!	!
1c#X	-as	1E	.	2g\	.
!	!	!	!	!LO:TX:t=P:problem:kreska pseudotaktowa	!
.	.	.	.	2a\	.
!	!	!LO:TX:t=P:problem:kreska pseudotaktowa	!	!	!
2r	.	1F	-o	2a\	.
!	!	!	!	!LO:TX:t=P:problem:kreska pseudotaktowa	!
1d\	De-	.	.	2a\	-ti-
=5-	=5-	=5	=5-	=5	=5-
!	!	!LO:TX:t=P:problem:kreska pseudotaktowa	!	!	!
.	.	1E	.	2g\	-as
!LO:TX:t=P:problem:kreska pseudotaktowa	!	!	!	!LO:TX:t=P:problem:kreska pseudotaktowa	!
2c#X\	.	.	.	2e\	De-
!	!	!LO:TX:t=P:problem:kreska pseudotaktowa	!	!LO:TX:t=P:problem:kreska pseudotaktowa	!
1.d	-o	1D	.	1f	-o
=6-	=6-	=6	=6-	=6	=6-
!	!	!LO:TX:t=P:problem:kreska pseudotaktowa	!	!	!
.	.	1F	.	2e\	gra-
!LO:TX:t=P:problem:kreska pseudotaktowa	!	!	!	!LO:TX:t=P:problem:kreska pseudotaktowa	!
2cn\	.	.	.	2f\	.
!LO:TX:t=P:problem:kreska pseudotaktowa	!	!LO:TX:t=P:problem:kreska pseudotaktowa	!	!	!
1B-X	.	1D	.	2g\	.
!	!	!	!	!LO:TX:t=P:problem:kreska pseudotaktowa	!
.	.	.	.	2d\	.
=7	=7-	=7	=7-	=7	=7-
!	!	!LO:TX:t=P:problem:kreska pseudotaktowa	!	!	!
1.c	gra-	1C	.	2e\	.
!	!	!	!	!LO:TX:t=P:problem:kreska pseudotaktowa	!
.	.	.	.	2g\	.
!	!	!LO:TX:t=P:problem:kreska pseudotaktowa	!	!	!
.	.	1D	.	2a\	.
!LO:TX:t=P:problem:kreska pseudotaktowa	!	!	!	!LO:TX:t=P:problem:kreska pseudotaktowa	!
2Bn\	.	.	.	2g\	-ti-
=8	=8-	=8	=8-	=8	=8-
!	!	!LO:TX:t=P:problem:kreska pseudotaktowa	!	!	!
2c\	.	1C	.	2g\	-as
!LO:TX:t=P:problem:kreska pseudotaktowa	!	!	!	!LO:TX:t=P:problem:kreska pseudotaktowa	!
2G/	.	.	.	2e\	De-
!	!	!LO:TX:t=P:problem:kreska pseudotaktowa	!	!	!
2A\	.	1D	gra-	1.f	.
!LO:TX:t=P:problem:kreska pseudotaktowa	!	!	!	!	!
2B\	-ti-	.	.	.	.
=9	=9-	=9	=9-	=9-	=9-
!LO:TX:t=P:problem:kreska pseudotaktowa	!	!LO:TX:t=P:problem:kreska pseudotaktowa	!	!	!
1c	-as	1F	.	.	.
!	!	!	!	!LO:TX:t=P:problem:kreska pseudotaktowa	!
.	.	.	.	2d\	-o
!	!	!LO:TX:t=P:problem:kreska pseudotaktowa	!	!	!
2B\	De-	1E	.	2d\	gra-
!	!	!	!	!LO:TX:t=P:problem:kreska pseudotaktowa	!
1A\	.	.	.	2c#X/	-ti-
=10-	=10-	=10	=10-	=10	=10-
!	!	!LO:TX:t=P:problem:kreska pseudotaktowa	!	!	!
.	.	1F	.	2d\	-as
!LO:TX:t=P:problem:kreska pseudotaktowa	!	!	!	!	!
2c\	-o	.	.	1f	De-
!	!	!LO:TX:t=P:problem:kreska pseudotaktowa	!	!	!
2d\	gra-	1G	.	.	.
!LO:TX:t=P:problem:kreska pseudotaktowa	!	!	!	!LO:TX:t=P:problem:kreska pseudotaktowa	!
2c\	.	.	.	2e\	-o
=11	=11-	=11	=11-	=11	=11-
!	!	!LO:TX:t=P:problem:kreska pseudotaktowa	!	!	!
2B-X\	.	1E	.	2d\	gra-
!LO:TX:t=P:problem:kreska pseudotaktowa	!	!	!	!LO:TX:t=P:problem:kreska pseudotaktowa	!
2A\	.	.	.	2c#X\	.
!LO:TX:t=P:problem:kreska pseudotaktowa	!	!LO:TX:t=P:problem:kreska pseudotaktowa	!	!	!
1A	.	1F	.	1.d	.
=12	=12-	=12	=12-	=12-	=12-
2B-X\	.	2.E/	.	.	.
!LO:TX:t=P:problem:kreska pseudotaktowa	!	!	!	!LO:TX:t=P:problem:kreska pseudotaktowa	!
2A\	-ti-	.	.	2c#X\	-ti-
!	!	!LO:TX:t=P:problem:kreska pseudotaktowa	!	!	!
.	.	4E/	-ti-	.	.
0A;	-as.	0D;	-as	0d;	-as.
==	=-	==	=-	==	=-
*-	*-	*-	*-	*-	*-
!!!system-decoration: [(s1,s2,s3)]
!!!ENC: Kamil Watkowski
!!!END: 2021-08-04
